svg/u2696.svg

<svg viewBox="0 0 128 128" xmlns="http://www.w3.org/2000/svg">
  <g>
    <rect height="70.6" fill="#4C889B" width="7" x="60.55" y="28.66"/>
    <path d="M92.42,35.83c5.23,0,10.82-1.88,15.35-8.2l-5.69-4.08c-5.42,7.55-12.69,5.6-20.28,2.73l-0.9-0.34 c-5.05-1.88-11.04-2.92-16.85-2.92v7c4.93,0,10.19,0.9,14.41,2.48l0.87,0.33C82.46,34.01,87.27,35.83,92.42,35.83z" fill="#4C889B"/>
    <path d="M40.42,113.4c2.05-2.14,11.91-4.93,14.51-7.35c2.6-2.42-0.03-5.23,1.21-10.98 c1.58-7.33,7.91-8.18,7.91-8.18s6.33,0.85,7.91,8.18c1.24,5.74-1.4,8.56,1.21,10.98c2.6,2.42,12.47,5.21,14.51,7.35 c2.14,2.24,2.23,5.21,0,6.23c0,0-7.48,3.07-23.63,3.07s-23.63-3.07-23.63-3.07C38.51,119.03,38.28,115.64,40.42,113.4z" fill="#4C889B"/>
    <path d="M67.52,37.96c0,0.49,0.49,2.96-2.32,3.55c-2.46,0.51-4.66-0.57-4.66-3.61c0-2.5,0.24-3.66,0.24-3.66 S67.52,36.46,67.52,37.96z" fill="#335E68"/>
    <path d="M72.37,30.35c0-4.59-3.72-17.04-8.32-17.04s-8.32,12.45-8.32,17.04s3.72,8.32,8.32,8.32 S72.37,34.95,72.37,30.35z" fill="#4C889B"/>
    <circle cx="64.05" cy="10.8" r="5.5" fill="#4C889B"/>
    <circle cx="104.26" cy="24.19" r="5.5" fill="#4C889B"/>
    <path d="M35.67,35.83c5.15,0,9.96-1.82,13.09-3l0.87-0.33c4.23-1.57,9.48-2.48,14.41-2.48v-7 c-5.82,0-11.8,1.04-16.85,2.92l-0.9,0.34c-7.6,2.87-14.86,4.82-20.28-2.73l-5.69,4.08C24.86,33.95,30.44,35.83,35.67,35.83z" fill="#4C889B"/>
    <path d="M59.18,91.9c-1.44,1.09-1.27,3.02-1.19,3.31c0.2,0.7,0.9,1.12,1.57,1.37 c1.74,0.64,3.72,0.49,5.39-0.28c1.21-0.56,3.66-2.27,3.41-3.88C67.95,89.77,60.63,90.8,59.18,91.9z" fill="#81AFC1"/>
    <path d="M66.98,116.5c-7.44,1.69-15.26,0.84-21.64-1.33c-2.67-0.91-1.71-1.89-1.56-2.01 c1.29-1.06,2.93-1.79,4.68-1.93c3.18-0.25,5.7,0.98,8.75,1.89c3.46,1.03,7.13,1.37,10.72,0.99c0.51-0.05,1.07-0.1,1.5,0.19 C71.1,115.42,66.98,116.5,66.98,116.5z" fill="#81AFC1"/>
    <path d="M63.2,10.99c-0.54,0.24-1.16,0.38-1.72,0.18c-0.79-0.28-1.24-1.18-1.16-2.01 c0.15-1.51,2.49-3.56,4.07-2.77C66.48,7.44,64.62,10.35,63.2,10.99z" fill="#81AFC1"/>
    <path d="M58.2,27.2c1.41,1.68,4.57,1.43,6.14-2.44c1.06-2.62,0.74-5.58,0.59-6.49 c-0.38-2.44-2.54-3.01-4.04-0.92C57.74,21.72,57.28,26.11,58.2,27.2z" fill="#81AFC1"/>
    <circle cx="23.83" cy="24.91" r="1.81" fill="#4C889B"/>
    <g>
      <path d="M3.44,92.29L22,24.45c0,0,1.07-1.28,1.83-1.28s1.87,1.28,1.87,1.28l18.61,67.93l-2.65,0.74 L25.21,32.89l-2.75,0.26L6.09,93.02L3.44,92.29z" fill="#4C889B"/>
      <g>
        <path d="M44.41,92.44H3.25c0,4.59,10.82,10.8,20.58,10.8S44.41,96.61,44.41,92.44z" fill="#81AFC1"/>
        <g>
          <ellipse cx="23.83" cy="92.57" rx="20.58" ry="3.13" fill="#335E68"/>
          <path d="M23.83,90.45c8.54,0,14.87,0.79,17.85,1.59c0.53,0.14,0.53,0.91,0,1.05 c-2.98,0.8-9.31,1.59-17.85,1.59S8.96,93.9,5.98,93.1c-0.53-0.14-0.53-0.91,0-1.05C8.96,91.24,15.29,90.45,23.83,90.45 M23.83,89.44c-11.37,0-20.58,1.4-20.58,3.13c0,1.73,9.21,3.13,20.58,3.13s20.58-1.4,20.58-3.13 C44.41,90.84,35.2,89.44,23.83,89.44L23.83,89.44z" fill="#A3CDD9"/>
        </g>
      </g>
      <path d="M17.61,99.69c1.93,0.95,1.57,1.55,0.39,1.67c-2.34,0.24-6.18-1.23-8.48-3.21 c-0.67-0.58-1.49-2.56,0.73-2.23C13.69,96.42,13.44,97.62,17.61,99.69z" fill="#A3CDD9"/>
      <path d="M22.46,24.58v-0.03c0-0.76,0.62-1.38,1.38-1.38s1.38,0.62,1.38,1.38v0.05v71.15 c0,0.76-0.62,1.38-1.38,1.38s-1.38-0.62-1.38-1.38V24.58z" fill="#4C889B"/>
    </g>
    <circle cx="23.83" cy="24.54" r="5.5" fill="#4C889B"/>
    <path d="M24.77,20.16c1.33,0.6,0.73,1.75,0.46,2.09c-0.73,0.93-1.92,0.97-2.8,1.97 c-0.38,0.43-0.58,1.42-1.43,1.65c-0.78,0.21-1.12-0.41-1.16-0.67c-0.34-2.01,0.41-3.41,1.73-4.39 C22.18,20.35,23.44,19.56,24.77,20.16z" fill="#81AFC1"/>
    <g>
      <path d="M83.78,92.21l18.8-67.77c0,0,1.08-1.28,1.84-1.28c0.76,0,1.87,1.29,1.87,1.29l18.37,68L122,93.19 l-16.25-60.3L103,33.15L86.42,92.95L83.78,92.21z" fill="#4C889B"/>
      <g>
        <path d="M124.75,92.52l-41.16-0.15c-0.02,4.59,10.78,10.84,20.54,10.87 C113.89,103.28,124.74,96.68,124.75,92.52z" fill="#81AFC1"/>
        <g>
          <ellipse cx="104.17" cy="92.57" rx="3.13" ry="20.58" fill="#335E68" transform="matrix(3.538053e-03 -1 1 3.538053e-03 11.2297 196.4117)"/>
          <path d="M104.18,90.45c8.54,0.03,14.87,0.84,17.84,1.65c0.53,0.14,0.52,0.91,0,1.05 c-2.98,0.79-9.31,1.56-17.85,1.53c-8.54-0.03-14.87-0.84-17.84-1.65c-0.53-0.14-0.52-0.91,0-1.05 C89.3,91.19,95.64,90.42,104.18,90.45 M104.18,89.44c-11.37-0.04-20.59,1.33-20.59,3.06c-0.01,1.73,9.2,3.16,20.57,3.2 s20.59-1.33,20.59-3.06C124.76,90.92,115.55,89.48,104.18,89.44L104.18,89.44z" fill="#A3CDD9"/>
        </g>
      </g>
      <path d="M97.92,99.66c1.93,0.96,1.39,1.41,0.21,1.53c-2.34,0.24-5.85-1.42-8.45-3.4 c-0.7-0.54-1.92-2.47,0.9-1.93C93.95,96.52,94.04,97.73,97.92,99.66z" fill="#A3CDD9"/>
      <path d="M103.03,24.57l0-0.03c0-0.76,0.62-1.37,1.38-1.37c0.76,0,1.37,0.62,1.37,1.38l0,0.05l-0.25,71.15 c0,0.76-0.62,1.37-1.38,1.37s-1.37-0.62-1.37-1.38L103.03,24.57z" fill="#4C889B"/>
    </g>
    <path d="M104.81,20.11c1.33,0.6,0.77,1.78,0.46,2.09c-0.59,0.6-1.29,1.08-1.95,1.59 c-0.71,0.55-1.29,1.12-2.4,0.47c-1.26-0.73-0.49-2.51,0.63-3.35C102.15,20.46,103.48,19.52,104.81,20.11z" fill="#81AFC1"/>
  </g>
</svg>

<svg viewBox="0 0 128 128" xmlns="http://www.w3.org/2000/svg">
  <defs/>
  <path d="M60.55,28.66 L67.55,28.66 L67.55,99.26 L60.55,99.26 L60.55,28.66 Z" fill="#4C889B"/>
  <path d="M92.42,35.83 C97.65,35.83 103.24,33.95 107.77,27.63 L102.08,23.55 C96.66,31.1 89.39,29.15 81.8,26.28 L80.9,25.94 C75.85,24.06 69.86,23.02 64.05,23.02 L64.05,30.02 C68.98,30.02 74.24,30.92 78.46,32.5 L79.33,32.83 C82.46,34.01 87.27,35.83 92.42,35.83 Z" fill="#4C889B"/>
  <path d="M40.42,113.4 C42.47,111.26 52.33,108.47 54.93,106.05 C57.53,103.63 54.9,100.82 56.14,95.07 C57.72,87.74 64.05,86.89 64.05,86.89 C64.05,86.89 70.38,87.74 71.96,95.07 C73.2,100.81 70.56,103.63 73.17,106.05 C75.77,108.47 85.64,111.26 87.68,113.4 C89.82,115.64 89.91,118.61 87.68,119.63 C87.68,119.63 80.2,122.7 64.05,122.7 C47.9,122.7 40.42,119.63 40.42,119.63 C38.51,119.03 38.28,115.64 40.42,113.4 Z" fill="#4C889B"/>
  <path d="M67.52,37.96 C67.52,38.45 68.01,40.92 65.2,41.51 C62.74,42.02 60.54,40.94 60.54,37.9 C60.54,35.4 60.78,34.24 60.78,34.24 C60.78,34.24 67.52,36.46 67.52,37.96 Z" fill="#335E68"/>
  <path d="M72.37,30.35 C72.37,25.76 68.65,13.31 64.05,13.31 C59.45,13.31 55.73,25.76 55.73,30.35 C55.73,34.94 59.45,38.67 64.05,38.67 C68.65,38.67 72.37,34.95 72.37,30.35 Z" fill="#4C889B"/>
  <path d="M69.55,10.8 A5.5 5.5 0 1 1 58.55,10.8 A5.5 5.5 0 1 1 69.55,10.8 Z" fill="#4C889B"/>
  <path d="M109.76,24.19 A5.5 5.5 0 1 1 98.76,24.19 A5.5 5.5 0 1 1 109.76,24.19 Z" fill="#4C889B"/>
  <path d="M35.67,35.83 C40.82,35.83 45.63,34.01 48.76,32.83 L49.63,32.5 C53.86,30.93 59.11,30.02 64.04,30.02 L64.04,23.02 C58.22,23.02 52.24,24.06 47.19,25.94 L46.29,26.28 C38.69,29.15 31.43,31.1 26.01,23.55 L20.32,27.63 C24.86,33.95 30.44,35.83 35.67,35.83 Z" fill="#4C889B"/>
  <path d="M59.18,91.9 C57.74,92.99 57.91,94.92 57.99,95.21 C58.19,95.91 58.89,96.33 59.56,96.58 C61.3,97.22 63.28,97.07 64.95,96.3 C66.16,95.74 68.61,94.03 68.36,92.42 C67.95,89.77 60.63,90.8 59.18,91.9 Z" fill="#81AFC1"/>
  <path d="M66.98,116.5 C59.54,118.19 51.72,117.34 45.34,115.17 C42.67,114.26 43.63,113.28 43.78,113.16 C45.07,112.1 46.71,111.37 48.46,111.23 C51.64,110.98 54.16,112.21 57.21,113.12 C60.67,114.15 64.34,114.49 67.93,114.11 C68.44,114.06 69,114.01 69.43,114.3 C71.1,115.42 66.98,116.5 66.98,116.5 Z" fill="#81AFC1"/>
  <path d="M63.2,10.99 C62.66,11.23 62.04,11.37 61.48,11.17 C60.69,10.89 60.24,9.99 60.32,9.16 C60.47,7.65 62.81,5.6 64.39,6.39 C66.48,7.44 64.62,10.35 63.2,10.99 Z" fill="#81AFC1"/>
  <path d="M58.2,27.2 C59.61,28.88 62.77,28.63 64.34,24.76 C65.4,22.14 65.08,19.18 64.93,18.27 C64.55,15.83 62.39,15.26 60.89,17.35 C57.74,21.72 57.28,26.11 58.2,27.2 Z" fill="#81AFC1"/>
  <path d="M25.64,24.91 A1.81 1.81 0 1 1 22.02,24.91 A1.81 1.81 0 1 1 25.64,24.91 Z" fill="#4C889B"/>
  <path d="M3.44,92.29 L22,24.45 C22,24.45 23.07,23.17 23.83,23.17 C24.59,23.17 25.7,24.45 25.7,24.45 L44.31,92.38 L41.66,93.12 L25.21,32.89 L22.46,33.15 L6.09,93.02 L3.44,92.29 Z" fill="#4C889B"/>
  <path d="M44.41,92.44 L3.25,92.44 C3.25,97.03 14.07,103.24 23.83,103.24 C33.59,103.24 44.41,96.61 44.41,92.44 Z" fill="#81AFC1"/>
  <path d="M44.41,92.57 A20.58 3.13 0 1 1 3.25,92.57 A20.58 3.13 0 1 1 44.41,92.57 Z" fill="#335E68"/>
  <path d="M23.83,90.45 C32.37,90.45 38.7,91.24 41.68,92.04 C42.21,92.18 42.21,92.95 41.68,93.09 C38.7,93.89 32.37,94.68 23.83,94.68 C15.29,94.68 8.96,93.9 5.98,93.1 C5.45,92.96 5.45,92.19 5.98,92.05 C8.96,91.24 15.29,90.45 23.83,90.45 M23.83,89.44 C12.46,89.44 3.25,90.84 3.25,92.57 C3.25,94.3 12.46,95.7 23.83,95.7 C35.2,95.7 44.41,94.3 44.41,92.57 C44.41,90.84 35.2,89.44 23.83,89.44 L23.83,89.44 Z" fill="#A3CDD9"/>
  <path d="M17.61,99.69 C19.54,100.64 19.18,101.24 18,101.36 C15.66,101.6 11.82,100.13 9.52,98.15 C8.85,97.57 8.03,95.59 10.25,95.92 C13.69,96.42 13.44,97.62 17.61,99.69 Z" fill="#A3CDD9"/>
  <path d="M22.46,24.58 L22.46,24.55 C22.46,23.79 23.08,23.17 23.84,23.17 C24.6,23.17 25.22,23.79 25.22,24.55 L25.22,24.6 L25.22,95.75 C25.22,96.51 24.6,97.13 23.84,97.13 C23.08,97.13 22.46,96.51 22.46,95.75 L22.46,24.58 Z" fill="#4C889B"/>
  <path d="M29.33,24.54 A5.5 5.5 0 1 1 18.33,24.54 A5.5 5.5 0 1 1 29.33,24.54 Z" fill="#4C889B"/>
  <path d="M24.77,20.16 C26.1,20.76 25.5,21.91 25.23,22.25 C24.5,23.18 23.31,23.22 22.43,24.22 C22.05,24.65 21.85,25.64 21,25.87 C20.22,26.08 19.88,25.46 19.84,25.2 C19.5,23.19 20.25,21.79 21.57,20.81 C22.18,20.35 23.44,19.56 24.77,20.16 Z" fill="#81AFC1"/>
  <path d="M83.78,92.21 L102.58,24.44 C102.58,24.44 103.66,23.16 104.42,23.16 C105.18,23.16 106.29,24.45 106.29,24.45 L124.66,92.45 L122,93.19 L105.75,32.89 L103,33.15 L86.42,92.95 L83.78,92.21 Z" fill="#4C889B"/>
  <path d="M124.75,92.52 L83.59,92.37 C83.57,96.96 94.37,103.21 104.13,103.24 C113.89,103.28 124.74,96.68 124.75,92.52 Z" fill="#81AFC1"/>
  <path d="M104.179,89.439 C115.545,89.479 124.754,90.913 124.748,92.642 C124.742,94.371 115.523,95.739 104.157,95.699 C92.791,95.659 83.582,94.225 83.588,92.496 C83.594,90.768 92.813,89.399 104.179,89.439 Z" fill="#335E68"/>
  <path d="M104.18,90.45 C112.72,90.48 119.05,91.29 122.02,92.1 C122.55,92.24 122.54,93.01 122.02,93.15 C119.04,93.94 112.71,94.71 104.17,94.68 C95.63,94.65 89.3,93.84 86.33,93.03 C85.8,92.89 85.81,92.12 86.33,91.98 C89.3,91.19 95.64,90.42 104.18,90.45 M104.18,89.44 C92.81,89.4 83.59,90.77 83.59,92.5 C83.58,94.23 92.79,95.66 104.16,95.7 C115.53,95.74 124.75,94.37 124.75,92.64 C124.76,90.92 115.55,89.48 104.18,89.44 L104.18,89.44 Z" fill="#A3CDD9"/>
  <path d="M97.92,99.66 C99.85,100.62 99.31,101.07 98.13,101.19 C95.79,101.43 92.28,99.77 89.68,97.79 C88.98,97.25 87.76,95.32 90.58,95.86 C93.95,96.52 94.04,97.73 97.92,99.66 Z" fill="#A3CDD9"/>
  <path d="M103.03,24.57 L103.03,24.54 C103.03,23.78 103.65,23.17 104.41,23.17 C105.17,23.17 105.78,23.79 105.78,24.55 L105.78,24.6 L105.53,95.75 C105.53,96.51 104.91,97.12 104.15,97.12 C103.39,97.12 102.78,96.5 102.78,95.74 L103.03,24.57 Z" fill="#4C889B"/>
  <path d="M104.81,20.11 C106.14,20.71 105.58,21.89 105.27,22.2 C104.68,22.8 103.98,23.28 103.32,23.79 C102.61,24.34 102.03,24.91 100.92,24.26 C99.66,23.53 100.43,21.75 101.55,20.91 C102.15,20.46 103.48,19.52 104.81,20.11 Z" fill="#81AFC1"/>
</svg>
